X: 112104
T: MARQUIS OF TULLYBARDINE
Q: "Reel."
R:  Reel.
%R: reel
B: James Kerr "Merry Melodies" v.1 p.12 s.1 #4
Z: 2017 John Chambers <jc:trillian.mit.edu>
M: C
L: 1/8
K: A
uc |:\
A/A/A (cA) eAAf | eAAa fedc |\
[1 Bcde fBBg | aBBa gfea :|\
[2 defa fecf | ecBc f2(eg) |]
|:\
aA A/A/A cAAg | aAAa fedc |\
[1 bB B/B/B dBB^a | bBBa gfeg :|\
[2 defa fecf | ecBc f2(ea) |]\
"_Fine"A4 ||

% %newpage
%%sep 1 1 500
%%sep 1 1 500
%%center Set. 19th.

%%sep 1 1 500
%%sep 1 1 500

